src/topics/icons/magneto.svg

<svg height="371" preserveAspectRatio="xMidYMid" viewBox="0 0 256 371" width="256" xmlns="http://www.w3.org/2000/svg"><path d="m240.040712 137.119593c-2.996437 0-5.667175 1.563359-7.230534 3.908397l-105.005598 135.035114v.06514l-.06514-.06514v-.13028l-.06514.06514v-.06514l-104.9404578-135.035114c-1.5633587-2.345038-4.2340967-3.908397-7.2305343-3.908397h-15.2427481v55.629517-65.13995c0-70.2208647 56.8671756-127.15318025 127.0229012-127.15318025h.130279.78168.13028c70.155725 0 127.022901 56.93231555 127.022901 127.15318025v9.575573h-15.307889z" fill="#cb3366"/><path d="m90.935369 175.552163 34.393893 44.360305h.06514c.52112.58626 1.302799.977099 2.214758.977099.91196 0 1.693639-.390839 2.214759-.977099h.06514l34.393893-44.360305v53.219338l-36.348092 46.705344-.19542-.26056v.06514l-.19542.26056-36.673791-47.096183zm36.869211 100.120102-.19542-.19542h.39084z" fill="#b2345b"/><path d="m127.60916 149.496183-33.8076333-43.839186 33.8076333-43.4483456.19542.2605598v.0651399l.19542-.2605598 33.612214 43.1877867zm.13028-87.4829514.19542.2605597h-.39084z" fill="#bf3c65"/><path d="m127.80458 62.4692112-.19542-.2605598.13028-.1954198v-.06514l.06514.06514.06514-.06514v.06514l.13028.2605597zm-105.0707378 78.0376588c-1.5633587-2.345038-4.2340967-3.908397-7.2305343-3.908397h-15.2427481v-9.054453c0-46.900763 25.3394402-87.873791 63.1206107-109.8910938 20.9750636.5211196 39.3445295 11.1389313 50.6137405 27.1633588h.06514l13.549109 17.4575063-82.9231549 106.5038167zm118.8152668-95.690585h.06514c11.269212-16.0895674 29.638677-26.7073791 50.548601-27.2284987 37.78117 22.0824427 63.120611 63.0554707 63.120611 109.8910937v9.184733h-15.307888c-2.996438 0-5.667176 1.563359-7.230535 3.908397l-21.952163 28.205598-82.858015-106.5038167z" fill="#cf406e"/><path d="m192.61883 17.8483461c.977099.5862595 1.889058 1.172519 2.866157 1.6936386-.977099-.5211196-1.889058-1.1073791-2.866157-1.6936386zm-51.004581 26.9679389h-.06514l-13.549109 17.4575063-.13028-.2605597v-.06514l-.06514.06514-.06514-.06514v.06514l-.13028.1954198-13.614249-17.3923664h-.06514c-11.204071-16.0244275-29.7038168-26.6422392-50.6137405-27.1633588 18.7603054-10.94351144 40.5821885-17.2620865 63.9022905-17.2620865h.13028.781679.13028c23.320102 0 45.141985 6.25343511 63.90229 17.2620865-20.909924.4559797-39.279389 11.1389313-50.548601 27.1633588zm-13.744529 17.5877862.13028-.1302799.13028.1302799zm-.39084 0 .13028-.1302799.13028.1302799zm-64.5536892-44.5557251c-.9770992.5862595-1.8890585 1.172519-2.8661577 1.6936386.9770992-.5211196 1.8890585-1.1073791 2.8661577-1.6936386zm.4559797-.1954199c-.1302799.06514-.2605598.1302799-.3908397.2605598.0651399-.1302799.1954198-.1954198.3908397-.2605598zm128.7816795 0c.13028.06514.26056.1302799.39084.2605598-.06514-.1302799-.19542-.1954198-.39084-.2605598z" fill="#d8517d"/><path d="m.2605598 136.663613h15.307888c2.9964377 0 5.6671756 1.563359 7.2305344 3.908397l104.9404578 134.969975v.06514l.06514-.06514v.13028l.06514.06514v-.06514l105.005598-135.100255c1.563359-2.345038 4.234097-3.908397 7.230534-3.908397h15.307888v55.890077c0 2.996437-1.042239 5.797455-2.735877 8.012213l-122.463105 168.712469s-.586259.977099-2.279898.977099 0 0-.06514 0c0 0 0 0-.06514 0-1.628499-.06514-2.279898-.977099-2.279898-.977099l-122.46310439-168.712469c-1.69363868-2.214758-2.73587786-4.950636-2.73587786-8.012213v-55.890077z" fill="#4b3785"/><path d="m252.352163 200.956743h-12.311451c-2.996437 0-5.667175-1.563359-7.230534-3.908397l-21.952163-28.205598 21.952163-28.205598c1.563359-2.345038 4.234097-3.908397 7.230534-3.908397h15.307889v55.890077c0 2.996437-1.04224 5.797455-2.735878 8.012213zm-229.6183208-3.908397c-1.5633587 2.345038-4.2340967 3.908397-7.2305343 3.908397h-12.31145039l5.08091603 7.035115-5.34147583-7.295675c-1.69363868-2.214758-2.73587786-4.950636-2.73587786-8.012214v-56.020356h15.30788805c2.9964376 0 5.6671756 1.563359 7.2305343 3.908397l21.9521629 28.270738z"/><path d="m252.352163 200.956743h-12.311451c-2.996437 0-5.667175-1.563359-7.230534-3.908397l-21.952163-28.205598 21.952163-28.205598c1.563359-2.345038 4.234097-3.908397 7.230534-3.908397h15.307889v55.890077c0 2.996437-1.04224 5.797455-2.735878 8.012213zm-229.6183208-3.908397c-1.5633587 2.345038-4.2340967 3.908397-7.2305343 3.908397h-12.31145039l5.08091603 7.035115-5.34147583-7.295675c-1.69363868-2.214758-2.73587786-4.950636-2.73587786-8.012214v-56.020356h15.30788805c2.9964376 0 5.6671756 1.563359 7.2305343 3.908397l21.9521629 28.270738z" fill="#664c9e"/><path d="m164.217812 321.921628-36.478372-46.770483-36.4132313 46.770483z"/><path d="m164.413232 321.726209-34.328754 47.291603s-.586259.977099-2.279898.977099 0 0-.06514 0c0 0 0 0-.06514 0-1.628498-.06514-2.279898-.977099-2.279898-.977099l-34.3287531-47.291603z" fill="#42307c"/><path d="m90.935369 228.185242 36.869211 47.356743-36.4132314 46.770483-.3908397-.586259zm73.347583 93.606107v.390839l-.06514.06514-36.348092-46.705343 36.413232-46.835624z" fill="#45327e"/><path d="m210.858015 258.019338v-89.17659l21.952163 28.205598c1.563359 2.345038 4.234097 3.908397 7.230534 3.908397h12.311451zm-166.5628496-.521119-41.03816794-56.541476h12.31145034c2.9964377 0 5.6671756-1.563359 7.2305344-3.908397l21.4961832-27.749618z" fill="#584094"/><path d="m226.947583 96.9282443-15.959288 23.7760817h-.13028v138.813231c0 .91196-.390839 1.693639-.977099 2.214759v.195419l-42.145547 58.169975h-.06514c-.716539 1.172519-1.954198 2.019338-3.452417 2.019338v-7.947073-138.617812l-34.393893 44.360305h-.06514c-.52112.58626-1.367939.977099-2.214759.977099-.911959 0-1.628498-.390839-2.214758-.977099h-.06514l-34.393893-44.360305v138.552672 7.947073c-1.4330789 0-2.7358779-.781679-3.4524173-2.019338h-.0651399l-42.0152672-58.169975v-.195419c-.5862596-.52112-.9770993-1.367939-.9770993-2.214759v-138.748091h-.1302799l-16.0244274-23.7760817h.0651399c-.5211196-.7165395-.7816794-1.5633588-.7816794-2.540458 0-2.4101782 1.8890585-4.4295166 4.2992367-4.4295166h48.2035623v.06514c1.302799.1302799 2.4753181.8468193 3.1267176 1.8890585l44.4905849 57.5837148 44.425446-57.5837148c.716539-1.0422392 1.823918-1.6936387 3.126717-1.8890585v-.06514h48.203562c2.410179.06514 4.299237 2.0193384 4.299237 4.4295166.06514.9770992-.19542 1.8890585-.716539 2.540458z" fill="#fff"/></svg>

<?xml version="1.0" encoding="UTF-8" standalone="no"?>
<svg width="256px" height="371px" viewBox="0 0 256 371" version="1.1" xmlns="http://www.w3.org/2000/svg" xmlns:xlink="http://www.w3.org/1999/xlink" preserveAspectRatio="xMidYMid">
	<g>
		<path d="M240.040712,137.119593 C237.044275,137.119593 234.373537,138.682952 232.810178,141.02799 L127.80458,276.063104 L127.80458,276.128244 L127.73944,276.063104 L127.73944,275.932824 L127.6743,275.997964 L127.6743,275.932824 L22.7338422,140.89771 C21.1704835,138.552672 18.4997455,136.989313 15.5033079,136.989313 L0.260559796,136.989313 L0.260559796,192.61883 L0.260559796,127.47888 C0.260559796,57.2580153 57.1277354,0.325699746 127.283461,0.325699746 L127.41374,0.325699746 L128.19542,0.325699746 L128.3257,0.325699746 C198.481425,0.325699746 255.348601,57.2580153 255.348601,127.47888 L255.348601,137.054453 L240.040712,137.054453 L240.040712,137.119593 Z" fill="#CB3366"></path>
		<path d="M90.935369,175.552163 L125.329262,219.912468 L125.394402,219.912468 C125.915522,220.498728 126.697201,220.889567 127.60916,220.889567 L127.60916,220.889567 C128.52112,220.889567 129.302799,220.498728 129.823919,219.912468 L129.889059,219.912468 L164.282952,175.552163 L164.282952,228.771501 L127.93486,275.476845 L127.73944,275.216285 L127.73944,275.281425 L127.54402,275.541985 L90.870229,228.445802 L90.935369,175.552163 L90.935369,175.552163 Z M127.80458,275.672265 L127.80458,275.672265 L127.60916,275.476845 L128,275.476845 L127.80458,275.672265 L127.80458,275.672265 Z" fill="#B2345B"></path>
		<path d="M127.60916,149.496183 L93.8015267,105.656997 L127.60916,62.2086514 L127.80458,62.4692112 L127.80458,62.5343511 L128,62.2737913 L161.612214,105.461578 L127.60916,149.496183 L127.60916,149.496183 Z M127.73944,62.0132316 L127.73944,62.0132316 L127.93486,62.2737913 L127.54402,62.2737913 L127.73944,62.0132316 L127.73944,62.0132316 Z" fill="#BF3C65"></path>
		<path d="M127.80458,62.4692112 L127.80458,62.4692112 L127.60916,62.2086514 L127.73944,62.0132316 L127.73944,61.9480916 L127.80458,62.0132316 L127.86972,61.9480916 L127.86972,62.0132316 L128,62.2737913 L127.80458,62.4692112 L127.80458,62.4692112 Z M22.7338422,140.50687 C21.1704835,138.161832 18.4997455,136.598473 15.5033079,136.598473 L0.260559796,136.598473 L0.260559796,127.54402 C0.260559796,80.643257 25.6,39.670229 63.3811705,17.6529262 C84.3562341,18.1740458 102.7257,28.7918575 113.994911,44.816285 L114.060051,44.816285 L127.60916,62.2737913 L44.6860051,168.777608 L22.7338422,140.50687 L22.7338422,140.50687 Z M141.549109,44.816285 L141.614249,44.816285 C152.883461,28.7267176 171.252926,18.1089059 192.16285,17.5877863 C229.94402,39.670229 255.283461,80.643257 255.283461,127.47888 L255.283461,136.663613 L239.975573,136.663613 C236.979135,136.663613 234.308397,138.226972 232.745038,140.57201 L210.792875,168.777608 L127.93486,62.2737913 L141.549109,44.816285 L141.549109,44.816285 Z" fill="#CF406E"></path>
		<path d="M192.61883,17.8483461 C193.595929,18.4346056 194.507888,19.0208651 195.484987,19.5419847 C194.507888,19.0208651 193.595929,18.4346056 192.61883,17.8483461 L192.61883,17.8483461 Z M141.614249,44.816285 L141.549109,44.816285 L128,62.2737913 L127.86972,62.0132316 L127.86972,61.9480916 L127.80458,62.0132316 L127.73944,61.9480916 L127.73944,62.0132316 L127.60916,62.2086514 L113.994911,44.816285 L113.929771,44.816285 C102.7257,28.7918575 84.2259542,18.1740458 63.3160305,17.6529262 C82.0763359,6.70941476 103.898219,0.390839695 127.218321,0.390839695 L127.348601,0.390839695 L128.13028,0.390839695 L128.26056,0.390839695 C151.580662,0.390839695 173.402545,6.64427481 192.16285,17.6529262 C171.252926,18.1089059 152.883461,28.7918575 141.614249,44.816285 L141.614249,44.816285 Z M127.86972,62.4040712 L128,62.2737913 L128.13028,62.4040712 L127.86972,62.4040712 L127.86972,62.4040712 Z M127.47888,62.4040712 L127.60916,62.2737913 L127.73944,62.4040712 L127.47888,62.4040712 L127.47888,62.4040712 Z M62.9251908,17.8483461 C61.9480916,18.4346056 61.0361323,19.0208651 60.0590331,19.5419847 C61.0361323,19.0208651 61.9480916,18.4346056 62.9251908,17.8483461 L62.9251908,17.8483461 Z M63.3811705,17.6529262 L63.3811705,17.6529262 C63.2508906,17.7180662 63.1206107,17.7832061 62.9903308,17.913486 C63.0554707,17.7832061 63.1857506,17.7180662 63.3811705,17.6529262 L63.3811705,17.6529262 Z M192.16285,17.6529262 C192.29313,17.7180662 192.42341,17.7832061 192.55369,17.913486 C192.48855,17.7832061 192.35827,17.7180662 192.16285,17.6529262 L192.16285,17.6529262 L192.16285,17.6529262 Z" fill="#D8517D"></path>
		<path d="M0.260559796,136.663613 L15.5684478,136.663613 C18.5648855,136.663613 21.2356234,138.226972 22.7989822,140.57201 L127.73944,275.541985 L127.73944,275.607125 L127.80458,275.541985 L127.80458,275.672265 L127.86972,275.737405 L127.86972,275.672265 L232.875318,140.57201 C234.438677,138.226972 237.109415,136.663613 240.105852,136.663613 L255.41374,136.663613 L255.41374,192.55369 C255.41374,195.550127 254.371501,198.351145 252.677863,200.565903 L252.677863,200.565903 L130.214758,369.278372 C130.214758,369.278372 129.628499,370.255471 127.93486,370.255471 L127.93486,370.255471 C127.93486,370.255471 127.93486,370.255471 127.86972,370.255471 C127.86972,370.255471 127.86972,370.255471 127.80458,370.255471 L127.80458,370.255471 C126.176081,370.190331 125.524682,369.278372 125.524682,369.278372 L3.06157761,200.565903 C1.36793893,198.351145 0.325699746,195.615267 0.325699746,192.55369 L0.325699746,136.663613 L0.260559796,136.663613 Z" fill="#4B3785"></path>
		<path d="M252.352163,200.956743 L240.040712,200.956743 C237.044275,200.956743 234.373537,199.393384 232.810178,197.048346 L210.858015,168.842748 L232.810178,140.63715 C234.373537,138.292112 237.044275,136.728753 240.040712,136.728753 L255.348601,136.728753 L255.348601,192.61883 C255.348601,195.615267 254.306361,198.416285 252.612723,200.631043 L252.612723,200.631043 L252.352163,200.956743 Z M22.7338422,197.048346 C21.1704835,199.393384 18.4997455,200.956743 15.5033079,200.956743 L3.19185751,200.956743 L8.27277354,207.991858 L2.93129771,200.696183 C1.23765903,198.481425 0.195419847,195.745547 0.195419847,192.683969 L0.195419847,136.663613 L15.5033079,136.663613 C18.4997455,136.663613 21.1704835,138.226972 22.7338422,140.57201 L44.6860051,168.842748 L22.7338422,197.048346 L22.7338422,197.048346 Z"></path>
		<path d="M252.352163,200.956743 L240.040712,200.956743 C237.044275,200.956743 234.373537,199.393384 232.810178,197.048346 L210.858015,168.842748 L232.810178,140.63715 C234.373537,138.292112 237.044275,136.728753 240.040712,136.728753 L255.348601,136.728753 L255.348601,192.61883 C255.348601,195.615267 254.306361,198.416285 252.612723,200.631043 L252.612723,200.631043 L252.352163,200.956743 Z M22.7338422,197.048346 C21.1704835,199.393384 18.4997455,200.956743 15.5033079,200.956743 L3.19185751,200.956743 L8.27277354,207.991858 L2.93129771,200.696183 C1.23765903,198.481425 0.195419847,195.745547 0.195419847,192.683969 L0.195419847,136.663613 L15.5033079,136.663613 C18.4997455,136.663613 21.1704835,138.226972 22.7338422,140.57201 L44.6860051,168.842748 L22.7338422,197.048346 L22.7338422,197.048346 Z" fill="#664C9E"></path>
		<path d="M164.217812,321.921628 L127.73944,275.151145 L91.3262087,321.921628 L164.217812,321.921628 L164.217812,321.921628 Z"></path>
		<path d="M164.413232,321.726209 L130.084478,369.017812 C130.084478,369.017812 129.498219,369.994911 127.80458,369.994911 L127.80458,369.994911 C127.80458,369.994911 127.80458,369.994911 127.73944,369.994911 C127.73944,369.994911 127.73944,369.994911 127.6743,369.994911 L127.6743,369.994911 C126.045802,369.929771 125.394402,369.017812 125.394402,369.017812 L91.0656489,321.726209 L164.413232,321.726209 L164.413232,321.726209 Z" fill="#42307C"></path>
		<path d="M90.935369,228.185242 L127.80458,275.541985 L91.3913486,322.312468 L91.0005089,321.726209 L90.935369,228.185242 L90.935369,228.185242 Z M164.282952,321.791349 L164.282952,321.791349 L164.282952,322.182188 L164.217812,322.247328 L127.86972,275.541985 L164.282952,228.706361 L164.282952,321.791349 L164.282952,321.791349 Z" fill="#45327E"></path>
		<path d="M210.858015,258.019338 L210.858015,168.842748 L232.810178,197.048346 C234.373537,199.393384 237.044275,200.956743 240.040712,200.956743 L252.352163,200.956743 L210.858015,258.019338 L210.858015,258.019338 Z M44.2951654,257.498219 L3.25699746,200.956743 L15.5684478,200.956743 C18.5648855,200.956743 21.2356234,199.393384 22.7989822,197.048346 L44.2951654,169.298728 L44.2951654,257.498219 L44.2951654,257.498219 Z" fill="#584094"></path>
		<path d="M226.947583,96.9282443 L226.947583,96.9282443 L210.988295,120.704326 L210.858015,120.704326 L210.858015,259.517557 C210.858015,260.429517 210.467176,261.211196 209.880916,261.732316 L209.880916,261.927735 L167.735369,320.09771 L167.670229,320.09771 C166.95369,321.270229 165.716031,322.117048 164.217812,322.117048 L164.217812,314.169975 L164.217812,175.552163 L129.823919,219.912468 L129.758779,219.912468 C129.237659,220.498728 128.39084,220.889567 127.54402,220.889567 L127.54402,220.889567 C126.632061,220.889567 125.915522,220.498728 125.329262,219.912468 L125.264122,219.912468 L90.870229,175.552163 L90.870229,314.104835 L90.870229,322.051908 C89.4371501,322.051908 88.1343511,321.270229 87.4178117,320.03257 L87.3526718,320.03257 L45.3374046,261.862595 L45.3374046,261.667176 C44.751145,261.146056 44.3603053,260.299237 44.3603053,259.452417 L44.3603053,120.704326 L44.2300254,120.704326 L28.205598,96.9282443 L28.2707379,96.9282443 C27.7496183,96.2117048 27.4890585,95.3648855 27.4890585,94.3877863 C27.4890585,91.9776081 29.378117,89.9582697 31.7882952,89.9582697 L31.7882952,89.9582697 L79.9918575,89.9582697 L79.9918575,90.0234097 C81.2946565,90.1536896 82.4671756,90.870229 83.1185751,91.9124682 L127.60916,149.496183 L172.034606,91.9124682 C172.751145,90.870229 173.858524,90.2188295 175.161323,90.0234097 L175.161323,89.9582697 L223.364885,89.9582697 C225.775064,90.0234097 227.664122,91.9776081 227.664122,94.3877863 C227.729262,95.3648855 227.468702,96.2768448 226.947583,96.9282443 L226.947583,96.9282443 Z" fill="#FFFFFF"></path>
	</g>
</svg>
